retroactive/svg_marked/MAME.svg

<?xml version="1.0" encoding="UTF-8" standalone="no"?>
<svg
   xmlns:dc="http://purl.org/dc/elements/1.1/"
   xmlns:cc="http://creativecommons.org/ns#"
   xmlns:rdf="http://www.w3.org/1999/02/22-rdf-syntax-ns#"
   xmlns:svg="http://www.w3.org/2000/svg"
   xmlns="http://www.w3.org/2000/svg"
   viewBox="0 0 320 320"
   height="320"
   width="320"
   xml:space="preserve"
   version="1.1"
   id="svg2"><metadata
     id="metadata8"><rdf:RDF><cc:Work
         rdf:about=""><dc:format>image/svg+xml</dc:format><dc:type
           rdf:resource="http://purl.org/dc/dcmitype/StillImage" /></cc:Work></rdf:RDF></metadata><defs
     id="defs6"><clipPath
       id="clipPath16"
       clipPathUnits="userSpaceOnUse"><path
         id="path18"
         d="M 0,256 256,256 256,0 0,0 0,256 Z" /></clipPath><clipPath
       id="clipPath24"
       clipPathUnits="userSpaceOnUse"><path
         id="path26"
         d="M 72,248 184,248 184,8 72,8 72,248 Z" /></clipPath><clipPath
       id="clipPath44"
       clipPathUnits="userSpaceOnUse"><path
         id="path46"
         d="M 0,256 256,256 256,0 0,0 0,256 Z" /></clipPath></defs><g
     transform="matrix(1.25,0,0,-1.25,0,320)"
     id="g10"><g
       id="g12"><g
         clip-path="url(#clipPath16)"
         id="g14"><g
           id="g20"><g
             id="g22" /><g
             id="g28"><g
               style="opacity:0.5"
               id="g30"
               clip-path="url(#clipPath24)"><g
                 id="g32"
                 transform="translate(176,248)"><path
                   id="path34"
                   style="fill:#ffffff;fill-opacity:1;fill-rule:nonzero;stroke:none"
                   d="m 0,0 -96,0 -8,0 0,-8 0,-36 0,-1.298 0.411,-1.232 3.589,-10.768 0,-57.717 -3.761,-15.045 -0.239,-0.955 0,-0.985 0,-16.43 c 0,-5.085 3.354,-9.415 8,-10.963 l 0,-72.607 0,-8 8,0 80,0 8,0 0,8 0,72.607 c 4.646,1.548 8,5.878 8,10.963 l 0,16.43 0,0.985 -0.239,0.955 L 4,-115.015 4,-57.298 7.589,-46.53 8,-45.298 8,-44 8,-8 8,0 0,0 Z" /></g></g></g></g></g></g><path
       id="path36"
       style="fill:#4c4c4c;fill-opacity:1;fill-rule:nonzero;stroke:none"
       d="m 168,16 -80,0 0,84 80,0 0,-84 z" /><path
       id="path38"
       style="fill:#191919;fill-opacity:1;fill-rule:nonzero;stroke:none"
       d="m 168,100 -80,0 0,-84 80,0 0,84 z m -2,-82 -76,0 0,80 76,0 0,-80 z" /><g
       id="g40"><g
         clip-path="url(#clipPath44)"
         id="g42"><g
           transform="translate(176,204)"
           id="g48"><path
             id="path50"
             style="fill:#262626;fill-opacity:1;fill-rule:nonzero;stroke:none"
             d="m 0,0 0,36 -96,0 0,-36 4,-12 0,-60 -4,-16 0,-16.43 c 0,-1.972 1.686,-3.57 3.765,-3.57 l 88.47,0 c 2.079,0 3.765,1.598 3.765,3.57 l 0,16.43 -4,16 0,60 4,12 z" /></g><g
           transform="translate(84,204)"
           id="g52"><path
             id="path54"
             style="fill:#404040;fill-opacity:1;fill-rule:nonzero;stroke:none"
             d="m 0,0 4,-11.958 80,0 L 88,0 0,0 Z" /></g><path
           id="path56"
           style="fill:#263979;fill-opacity:1;fill-rule:nonzero;stroke:none"
           d="m 172,208 -88,0 0,28 88,0 0,-28 z" /><g
           transform="translate(137.2812,52)"
           id="g58"><path
             id="path60"
             style="fill:#262626;fill-opacity:1;fill-rule:nonzero;stroke:none"
             d="m 0,0 -18.562,0 c -1.496,0 -2.719,1.223 -2.719,2.719 l 0,26.562 c 0,1.496 1.223,2.719 2.719,2.719 L 0,32 c 1.495,0 2.719,-1.223 2.719,-2.719 l 0,-26.562 C 2.719,1.223 1.495,0 0,0" /></g><g
           transform="translate(128,188)"
           id="g62"><path
             id="path64"
             style="fill:#191919;fill-opacity:1;fill-rule:nonzero;stroke:none"
             d="m 0,0 c -29.887,0 -36,-4.384 -36,-26 0,-21.616 6.019,-26 36,-26 29.985,0 36,4.376 36,26 C 36,-4.374 29.887,0 0,0" /></g><path
           id="path66"
           style="fill:#191919;fill-opacity:1;fill-rule:nonzero;stroke:none"
           d="m 138,79.969 -20,0 0,-20.01 20,0 0,20.01 z m -2,-18.01 -16,0 0,16.01 16,0 0,-16.01 z" /><g
           transform="translate(80,116)"
           id="g68"><path
             id="path70"
             style="fill:#4c4c4c;fill-opacity:1;fill-rule:nonzero;stroke:none"
             d="M 0,0 4,16 92,16 96,0 0,0 Z" /></g><g
           transform="translate(88,217.2477)"
           id="g72"><path
             id="path74"
             style="fill:#ffffff;fill-opacity:1;fill-rule:nonzero;stroke:none"
             d="m 0,0 15.832,14.511 0.174,-6.345 7.28,6.265 0.26,-10.442 11.875,10.496 0,-11.861 13.001,11.164 0.607,-5.783 6.933,5.864 0.52,-9.719 11.615,10.602 11.903,-0.08 -3.236,-3.32 -6.934,0.027 -2.167,-1.928 3.121,0.054 -3.496,-3.668 -3.207,0 -2.571,-2.249 10.343,-0.027 -3.149,-3.748 -16.729,0 0.521,0.803 0,4.658 -6.241,-5.22 -0.202,6.024 -0.491,0.241 -6.501,-6.373 -7.194,0.027 -0.173,5.141 -0.52,0.16 -11.441,-10.522 -5.721,0 5.721,5.462 -0.26,4.98 -6.067,-5.14 0,6.211 L 13.174,6.506 5.778,0.027 0,0 Z" /></g><path
           id="path76"
           style="fill:#7b0000;fill-opacity:1;fill-rule:nonzero;stroke:none"
           d="m 126,72 -4,0 0,4 4,0 0,-4 z" /><path
           id="path78"
           style="fill:#7b0000;fill-opacity:1;fill-rule:nonzero;stroke:none"
           d="m 134,72 -4,0 0,4 4,0 0,-4 z" /><path
           id="path80"
           style="fill:#0d0d0d;fill-opacity:1;fill-rule:nonzero;stroke:none"
           d="m 126,64 -4,0 0,4 4,0 0,-4 z" /><path
           id="path82"
           style="fill:#0d0d0d;fill-opacity:1;fill-rule:nonzero;stroke:none"
           d="m 134,64 -4,0 0,4 4,0 0,-4 z" /><g
           transform="translate(118,125)"
           id="g84"><path
             id="path86"
             style="fill:#ffffff;fill-opacity:1;fill-rule:nonzero;stroke:none"
             d="m 0,0 c 0,-0.552 -0.895,-1 -2,-1 -1.105,0 -2,0.448 -2,1 0,0.552 0.895,1 2,1 1.105,0 2,-0.448 2,-1" /></g><g
           transform="translate(124,125)"
           id="g88"><path
             id="path90"
             style="fill:#263979;fill-opacity:1;fill-rule:nonzero;stroke:none"
             d="m 0,0 c 0,-0.552 -0.895,-1 -2,-1 -1.105,0 -2,0.448 -2,1 0,0.552 0.895,1 2,1 1.105,0 2,-0.448 2,-1" /></g><g
           transform="translate(92,129)"
           id="g92"><path
             id="path94"
             style="fill:#ffffff;fill-opacity:1;fill-rule:nonzero;stroke:none"
             d="m 0,0 c 0,-0.552 -0.895,-1 -2,-1 -1.105,0 -2,0.448 -2,1 0,0.552 0.895,1 2,1 1.105,0 2,-0.448 2,-1" /></g><g
           transform="translate(112,125)"
           id="g96"><path
             id="path98"
             style="fill:#ff0000;fill-opacity:1;fill-rule:nonzero;stroke:none"
             d="m 0,0 c 0,-0.552 -0.895,-1 -2,-1 -1.105,0 -2,0.448 -2,1 0,0.552 0.895,1 2,1 1.105,0 2,-0.448 2,-1" /></g><g
           transform="translate(118,121)"
           id="g100"><path
             id="path102"
             style="fill:#ffffff;fill-opacity:1;fill-rule:nonzero;stroke:none"
             d="m 0,0 c 0,-0.552 -0.895,-1 -2,-1 -1.105,0 -2,0.448 -2,1 0,0.552 0.895,1 2,1 1.105,0 2,-0.448 2,-1" /></g><g
           transform="translate(124,121)"
           id="g104"><path
             id="path106"
             style="fill:#263979;fill-opacity:1;fill-rule:nonzero;stroke:none"
             d="m 0,0 c 0,-0.552 -0.895,-1 -2,-1 -1.105,0 -2,0.448 -2,1 0,0.552 0.895,1 2,1 1.105,0 2,-0.448 2,-1" /></g><g
           transform="translate(112,121)"
           id="g108"><path
             id="path110"
             style="fill:#ff0000;fill-opacity:1;fill-rule:nonzero;stroke:none"
             d="m 0,0 c 0,-0.552 -0.895,-1 -2,-1 -1.105,0 -2,0.448 -2,1 0,0.552 0.895,1 2,1 1.105,0 2,-0.448 2,-1" /></g><g
           transform="translate(104.5,123.75)"
           id="g112"><path
             id="path114"
             style="fill:#191919;fill-opacity:1;fill-rule:nonzero;stroke:none"
             d="M 0,0 C 0,-1.243 -2.015,-2.25 -4.5,-2.25 -6.985,-2.25 -9,-1.243 -9,0 -9,1.243 -6.985,2.25 -4.5,2.25 -2.015,2.25 0,1.243 0,0" /></g><g
           transform="translate(98.875,123.6859)"
           id="g116"><path
             id="path118"
             style="fill:#333333;fill-opacity:1;fill-rule:nonzero;stroke:none"
             d="m 0,0 -1.125,6.651 c 0,0.915 1.012,1.663 2.25,1.663 1.238,0 2.25,-0.748 2.25,-1.663 L 2.25,0 C 2.25,-0.915 0,-0.915 0,0" /></g><g
           transform="translate(162,125)"
           id="g120"><path
             id="path122"
             style="fill:#ffffff;fill-opacity:1;fill-rule:nonzero;stroke:none"
             d="m 0,0 c 0,-0.552 -0.895,-1 -2,-1 -1.105,0 -2,0.448 -2,1 0,0.552 0.895,1 2,1 1.105,0 2,-0.448 2,-1" /></g><g
           transform="translate(168,125)"
           id="g124"><path
             id="path126"
             style="fill:#263979;fill-opacity:1;fill-rule:nonzero;stroke:none"
             d="m 0,0 c 0,-0.552 -0.895,-1 -2,-1 -1.105,0 -2,0.448 -2,1 0,0.552 0.895,1 2,1 1.105,0 2,-0.448 2,-1" /></g><g
           transform="translate(136,129)"
           id="g128"><path
             id="path130"
             style="fill:#ffffff;fill-opacity:1;fill-rule:nonzero;stroke:none"
             d="m 0,0 c 0,-0.552 -0.895,-1 -2,-1 -1.105,0 -2,0.448 -2,1 0,0.552 0.895,1 2,1 1.105,0 2,-0.448 2,-1" /></g><g
           transform="translate(156,125)"
           id="g132"><path
             id="path134"
             style="fill:#ff0000;fill-opacity:1;fill-rule:nonzero;stroke:none"
             d="m 0,0 c 0,-0.552 -0.895,-1 -2,-1 -1.105,0 -2,0.448 -2,1 0,0.552 0.895,1 2,1 1.105,0 2,-0.448 2,-1" /></g><g
           transform="translate(162,121)"
           id="g136"><path
             id="path138"
             style="fill:#ffffff;fill-opacity:1;fill-rule:nonzero;stroke:none"
             d="m 0,0 c 0,-0.552 -0.895,-1 -2,-1 -1.105,0 -2,0.448 -2,1 0,0.552 0.895,1 2,1 1.105,0 2,-0.448 2,-1" /></g><g
           transform="translate(168,121)"
           id="g140"><path
             id="path142"
             style="fill:#263979;fill-opacity:1;fill-rule:nonzero;stroke:none"
             d="m 0,0 c 0,-0.552 -0.895,-1 -2,-1 -1.105,0 -2,0.448 -2,1 0,0.552 0.895,1 2,1 1.105,0 2,-0.448 2,-1" /></g><g
           transform="translate(156,121)"
           id="g144"><path
             id="path146"
             style="fill:#ff0000;fill-opacity:1;fill-rule:nonzero;stroke:none"
             d="m 0,0 c 0,-0.552 -0.895,-1 -2,-1 -1.105,0 -2,0.448 -2,1 0,0.552 0.895,1 2,1 1.105,0 2,-0.448 2,-1" /></g><g
           transform="translate(148.5,123.75)"
           id="g148"><path
             id="path150"
             style="fill:#191919;fill-opacity:1;fill-rule:nonzero;stroke:none"
             d="M 0,0 C 0,-1.243 -2.015,-2.25 -4.5,-2.25 -6.985,-2.25 -9,-1.243 -9,0 -9,1.243 -6.985,2.25 -4.5,2.25 -2.015,2.25 0,1.243 0,0" /></g><g
           transform="translate(142.875,123.6859)"
           id="g152"><path
             id="path154"
             style="fill:#333333;fill-opacity:1;fill-rule:nonzero;stroke:none"
             d="m 0,0 -1.125,6.651 c 0,0.915 1.012,1.663 2.25,1.663 1.238,0 2.25,-0.748 2.25,-1.663 L 2.25,0 C 2.25,-0.915 0,-0.915 0,0" /></g></g></g></g></svg>

<?xml version="1.0" encoding="UTF-8" standalone="no"?>
<svg
   xmlns:dc="http://purl.org/dc/elements/1.1/"
   xmlns:cc="http://creativecommons.org/ns#"
   xmlns:rdf="http://www.w3.org/1999/02/22-rdf-syntax-ns#"
   xmlns:svg="http://www.w3.org/2000/svg"
   xmlns="http://www.w3.org/2000/svg"
   viewBox="0 0 149.33333 320"
   height="320"
   width="149.33333"
   xml:space="preserve"
   id="svg2"
   version="1.1"><metadata
     id="metadata8"><rdf:RDF><cc:Work
         rdf:about=""><dc:format>image/svg+xml</dc:format><dc:type
           rdf:resource="http://purl.org/dc/dcmitype/StillImage" /></cc:Work></rdf:RDF></metadata><defs
     id="defs6"><clipPath
       id="clipPath18"
       clipPathUnits="userSpaceOnUse"><path
         id="path16"
         d="M 0,256 H 256 V 0 H 0 Z" /></clipPath><clipPath
       id="clipPath26"
       clipPathUnits="userSpaceOnUse"><path
         id="path24"
         d="M 72,248 H 184 V 8 H 72 Z" /></clipPath><clipPath
       id="clipPath46"
       clipPathUnits="userSpaceOnUse"><path
         id="path44"
         d="M 0,256 H 256 V 0 H 0 Z" /></clipPath></defs><g
     transform="matrix(1.3333333,0,0,-1.3333333,-95.999998,330.66666)"
     id="g10"><g
       id="g12"><g
         clip-path="url(#clipPath18)"
         id="g14"><g
           id="g20"><g
             id="g22" /><g
             id="g34"><g
               style="opacity:0.5"
               id="g32"
               clip-path="url(#clipPath26)"><g
                 id="g30"
                 transform="translate(176,248)"><path
                   id="path28"
                   style="fill:#ffffff;fill-opacity:1;fill-rule:nonzero;stroke:none"
                   d="m 0,0 h -96 -8 v -8 -36 -1.298 l 0.411,-1.232 3.589,-10.768 v -57.717 l -3.761,-15.045 -0.239,-0.955 V -132 -148.43 c 0,-5.085 3.354,-9.415 8,-10.963 V -232 v -8 h 8 80 8 v 8 72.607 c 4.646,1.548 8,5.878 8,10.963 v 16.43 0.985 L 7.761,-130.06 4,-115.015 v 57.717 L 7.589,-46.53 8,-45.298 V -44 -8 0 Z" /></g></g></g></g></g></g><path
       id="path36"
       style="fill:#4c4c4c;fill-opacity:1;fill-rule:nonzero;stroke:none"
       d="M 168,16 H 88 v 84 h 80 z" /><path
       id="path38"
       style="fill:#191919;fill-opacity:1;fill-rule:nonzero;stroke:none"
       d="M 168,100 H 88 V 16 h 80 z M 166,18 H 90 v 80 h 76 z" /><g
       id="g40"><g
         clip-path="url(#clipPath46)"
         id="g42"><g
           transform="translate(176,204)"
           id="g48"><path
             id="path50"
             style="fill:#262626;fill-opacity:1;fill-rule:nonzero;stroke:none"
             d="M 0,0 V 36 H -96 V 0 l 4,-12 v -60 l -4,-16 v -16.43 c 0,-1.972 1.686,-3.57 3.765,-3.57 h 88.47 c 2.079,0 3.765,1.598 3.765,3.57 V -88 l -4,16 v 60 z" /></g><g
           transform="translate(84,204)"
           id="g52"><path
             id="path54"
             style="fill:#404040;fill-opacity:1;fill-rule:nonzero;stroke:none"
             d="M 0,0 4,-11.958 H 84 L 88,0 Z" /></g><path
           id="path56"
           style="fill:#263979;fill-opacity:1;fill-rule:nonzero;stroke:none"
           d="M 172,208 H 84 v 28 h 88 z" /><g
           transform="translate(137.2812,52)"
           id="g58"><path
             id="path60"
             style="fill:#262626;fill-opacity:1;fill-rule:nonzero;stroke:none"
             d="m 0,0 h -18.562 c -1.496,0 -2.719,1.223 -2.719,2.719 v 26.562 c 0,1.496 1.223,2.719 2.719,2.719 H 0 c 1.495,0 2.719,-1.223 2.719,-2.719 V 2.719 C 2.719,1.223 1.495,0 0,0" /></g><g
           transform="translate(128,188)"
           id="g62"><path
             id="path64"
             style="fill:#191919;fill-opacity:1;fill-rule:nonzero;stroke:none"
             d="m 0,0 c -29.887,0 -36,-4.384 -36,-26 0,-21.616 6.019,-26 36,-26 29.985,0 36,4.376 36,26 C 36,-4.374 29.887,0 0,0" /></g><path
           id="path66"
           style="fill:#191919;fill-opacity:1;fill-rule:nonzero;stroke:none"
           d="m 138,79.969 h -20 v -20.01 h 20 z m -2,-18.01 h -16 v 16.01 h 16 z" /><g
           transform="translate(80,116)"
           id="g68"><path
             id="path70"
             style="fill:#4c4c4c;fill-opacity:1;fill-rule:nonzero;stroke:none"
             d="M 0,0 4,16 H 92 L 96,0 Z" /></g><g
           transform="translate(88,217.2477)"
           id="g72"><path
             id="path74"
             style="fill:#ffffff;fill-opacity:1;fill-rule:nonzero;stroke:none"
             d="m 0,0 15.832,14.511 0.174,-6.345 7.28,6.265 0.26,-10.442 11.875,10.496 V 2.624 L 48.422,13.788 49.029,8.005 55.962,13.869 56.482,4.15 68.097,14.752 80,14.672 76.764,11.352 69.83,11.379 67.663,9.451 70.784,9.505 67.288,5.837 H 64.081 L 61.51,3.588 71.853,3.561 68.704,-0.187 H 51.975 l 0.521,0.803 v 4.658 l -6.241,-5.22 -0.202,6.024 -0.491,0.241 -6.501,-6.373 -7.194,0.027 -0.173,5.141 -0.52,0.16 -11.441,-10.522 h -5.721 l 5.721,5.462 -0.26,4.98 -6.067,-5.14 V 6.265 L 13.174,6.506 5.778,0.027 Z" /></g><path
           id="path76"
           style="fill:#7b0000;fill-opacity:1;fill-rule:nonzero;stroke:none"
           d="m 126,72 h -4 v 4 h 4 z" /><path
           id="path78"
           style="fill:#7b0000;fill-opacity:1;fill-rule:nonzero;stroke:none"
           d="m 134,72 h -4 v 4 h 4 z" /><path
           id="path80"
           style="fill:#0d0d0d;fill-opacity:1;fill-rule:nonzero;stroke:none"
           d="m 126,64 h -4 v 4 h 4 z" /><path
           id="path82"
           style="fill:#0d0d0d;fill-opacity:1;fill-rule:nonzero;stroke:none"
           d="m 134,64 h -4 v 4 h 4 z" /><g
           transform="translate(118,125)"
           id="g84"><path
             id="path86"
             style="fill:#ffffff;fill-opacity:1;fill-rule:nonzero;stroke:none"
             d="m 0,0 c 0,-0.552 -0.895,-1 -2,-1 -1.105,0 -2,0.448 -2,1 0,0.552 0.895,1 2,1 1.105,0 2,-0.448 2,-1" /></g><g
           transform="translate(124,125)"
           id="g88"><path
             id="path90"
             style="fill:#263979;fill-opacity:1;fill-rule:nonzero;stroke:none"
             d="m 0,0 c 0,-0.552 -0.895,-1 -2,-1 -1.105,0 -2,0.448 -2,1 0,0.552 0.895,1 2,1 1.105,0 2,-0.448 2,-1" /></g><g
           transform="translate(92,129)"
           id="g92"><path
             id="path94"
             style="fill:#ffffff;fill-opacity:1;fill-rule:nonzero;stroke:none"
             d="m 0,0 c 0,-0.552 -0.895,-1 -2,-1 -1.105,0 -2,0.448 -2,1 0,0.552 0.895,1 2,1 1.105,0 2,-0.448 2,-1" /></g><g
           transform="translate(112,125)"
           id="g96"><path
             id="path98"
             style="fill:#ff0000;fill-opacity:1;fill-rule:nonzero;stroke:none"
             d="m 0,0 c 0,-0.552 -0.895,-1 -2,-1 -1.105,0 -2,0.448 -2,1 0,0.552 0.895,1 2,1 1.105,0 2,-0.448 2,-1" /></g><g
           transform="translate(118,121)"
           id="g100"><path
             id="path102"
             style="fill:#ffffff;fill-opacity:1;fill-rule:nonzero;stroke:none"
             d="m 0,0 c 0,-0.552 -0.895,-1 -2,-1 -1.105,0 -2,0.448 -2,1 0,0.552 0.895,1 2,1 1.105,0 2,-0.448 2,-1" /></g><g
           transform="translate(124,121)"
           id="g104"><path
             id="path106"
             style="fill:#263979;fill-opacity:1;fill-rule:nonzero;stroke:none"
             d="m 0,0 c 0,-0.552 -0.895,-1 -2,-1 -1.105,0 -2,0.448 -2,1 0,0.552 0.895,1 2,1 1.105,0 2,-0.448 2,-1" /></g><g
           transform="translate(112,121)"
           id="g108"><path
             id="path110"
             style="fill:#ff0000;fill-opacity:1;fill-rule:nonzero;stroke:none"
             d="m 0,0 c 0,-0.552 -0.895,-1 -2,-1 -1.105,0 -2,0.448 -2,1 0,0.552 0.895,1 2,1 1.105,0 2,-0.448 2,-1" /></g><g
           transform="translate(104.5,123.75)"
           id="g112"><path
             id="path114"
             style="fill:#191919;fill-opacity:1;fill-rule:nonzero;stroke:none"
             d="M 0,0 C 0,-1.243 -2.015,-2.25 -4.5,-2.25 -6.985,-2.25 -9,-1.243 -9,0 -9,1.243 -6.985,2.25 -4.5,2.25 -2.015,2.25 0,1.243 0,0" /></g><g
           transform="translate(98.875,123.6859)"
           id="g116"><path
             id="path118"
             style="fill:#333333;fill-opacity:1;fill-rule:nonzero;stroke:none"
             d="m 0,0 -1.125,6.651 c 0,0.915 1.012,1.663 2.25,1.663 1.238,0 2.25,-0.748 2.25,-1.663 L 2.25,0 C 2.25,-0.915 0,-0.915 0,0" /></g><g
           transform="translate(162,125)"
           id="g120"><path
             id="path122"
             style="fill:#ffffff;fill-opacity:1;fill-rule:nonzero;stroke:none"
             d="m 0,0 c 0,-0.552 -0.895,-1 -2,-1 -1.105,0 -2,0.448 -2,1 0,0.552 0.895,1 2,1 1.105,0 2,-0.448 2,-1" /></g><g
           transform="translate(168,125)"
           id="g124"><path
             id="path126"
             style="fill:#263979;fill-opacity:1;fill-rule:nonzero;stroke:none"
             d="m 0,0 c 0,-0.552 -0.895,-1 -2,-1 -1.105,0 -2,0.448 -2,1 0,0.552 0.895,1 2,1 1.105,0 2,-0.448 2,-1" /></g><g
           transform="translate(136,129)"
           id="g128"><path
             id="path130"
             style="fill:#ffffff;fill-opacity:1;fill-rule:nonzero;stroke:none"
             d="m 0,0 c 0,-0.552 -0.895,-1 -2,-1 -1.105,0 -2,0.448 -2,1 0,0.552 0.895,1 2,1 1.105,0 2,-0.448 2,-1" /></g><g
           transform="translate(156,125)"
           id="g132"><path
             id="path134"
             style="fill:#ff0000;fill-opacity:1;fill-rule:nonzero;stroke:none"
             d="m 0,0 c 0,-0.552 -0.895,-1 -2,-1 -1.105,0 -2,0.448 -2,1 0,0.552 0.895,1 2,1 1.105,0 2,-0.448 2,-1" /></g><g
           transform="translate(162,121)"
           id="g136"><path
             id="path138"
             style="fill:#ffffff;fill-opacity:1;fill-rule:nonzero;stroke:none"
             d="m 0,0 c 0,-0.552 -0.895,-1 -2,-1 -1.105,0 -2,0.448 -2,1 0,0.552 0.895,1 2,1 1.105,0 2,-0.448 2,-1" /></g><g
           transform="translate(168,121)"
           id="g140"><path
             id="path142"
             style="fill:#263979;fill-opacity:1;fill-rule:nonzero;stroke:none"
             d="m 0,0 c 0,-0.552 -0.895,-1 -2,-1 -1.105,0 -2,0.448 -2,1 0,0.552 0.895,1 2,1 1.105,0 2,-0.448 2,-1" /></g><g
           transform="translate(156,121)"
           id="g144"><path
             id="path146"
             style="fill:#ff0000;fill-opacity:1;fill-rule:nonzero;stroke:none"
             d="m 0,0 c 0,-0.552 -0.895,-1 -2,-1 -1.105,0 -2,0.448 -2,1 0,0.552 0.895,1 2,1 1.105,0 2,-0.448 2,-1" /></g><g
           transform="translate(148.5,123.75)"
           id="g148"><path
             id="path150"
             style="fill:#191919;fill-opacity:1;fill-rule:nonzero;stroke:none"
             d="M 0,0 C 0,-1.243 -2.015,-2.25 -4.5,-2.25 -6.985,-2.25 -9,-1.243 -9,0 -9,1.243 -6.985,2.25 -4.5,2.25 -2.015,2.25 0,1.243 0,0" /></g><g
           transform="translate(142.875,123.6859)"
           id="g152"><path
             id="path154"
             style="fill:#333333;fill-opacity:1;fill-rule:nonzero;stroke:none"
             d="m 0,0 -1.125,6.651 c 0,0.915 1.012,1.663 2.25,1.663 1.238,0 2.25,-0.748 2.25,-1.663 L 2.25,0 C 2.25,-0.915 0,-0.915 0,0" /></g></g></g></g></svg>
